X: 20885
T: Jonny's Flush
R: reel
M: 4/4
K: Dmajor
|:DEFA BAde|fdef dBAF|DEFA BAdf|gfdB dBAF|
DEFA BAde|fdef defg|afdf gfdB|dBAF E2 D2:|
|:ABde fedf|bfdf edef|ABde feaf|bfaf gfed|
ABde fedf|bfdf ef g2|afdf gfdB|dBAF E2 D2:|
|:Bdef gfed|adgd fdgd|Bdef edef|aAgA fAed|
Bdef gf a2|bdad g2 fg|afdf gfdB|dBAF E2 D2:|

